!!!!SEGMENT: pl-wtm--r-1226--022_lodwigowski-edward-stefan--z-pomiedzy-boju.krn
!!!cenid: 18xx:1938
!!!COM: Łodwigowski, Edward Stefan
!!!COM-rismID: pe30111147
!!!CDT: 1815/08/14-1895/11/12
!!!CNT: Polish
!!!OTL: Z pomiędzy boju
!!!PDT:
!!!AGN:
!!!SMS-siglum: PL-Wtm
!!!SMS-shelfmark: R 1226
!!!SMS-shelfwork: 022 W
!!!SMS-variant:
!!!SMS-altvar:
!!!NIFC-rismSourceID: 1001084014
!!!NIFC-rismChildID: 1001084014
!!!NIFC-islandoraID:
!!!URL-pdf-islandora:
!!!URL-scan:
!!!IIIF:
!!!ONB-nifc: UWAGA: No. 70
!!!OMD: Adagio lamentoso
!!!AIN: 1 forte
!!!key:
**kern	**fing	**kern	**fing	**dynam
*part1	*part1	*part1	*part1	*part1
*staff2	*staff2	*staff1	*staff1	*
*Iforte	*	*Iforte	*	*
*I"Fortepian	*	*I"Fortepian	*	*
*clefF4	*	*clefG2	*	*
*k[b-e-a-d-]	*	*k[b-e-a-d-]	*	*
*f:	*	*f:	*	*
*M2/4	*	*M2/4	*	*
*all\right	*	*all\right	*	*
=1	=1	=1	=1	=1
*	*	*^	*^	*
!	!	!LO:TX:a:i:t=Z pomiędzy boju J.P. Lessel	!	!	!	!
!	!	!LO:TX:Bi:t=No. 70	!	!	!	!LO:DY:rj
8r	.	4cc/	4a-\	4	2	p
*	*below	*	*	*	*	*
8f\L	1	.	.	.	.	.
8en\	.	8dd-L 8b-/	8g\L	5	.	.
8f\J	.	8cc/J	8a-\J	.	.	.
*	*	*	*	*v	*v	*
=2	=2	=2	=2	=2	=2
*	*	*	*	*below	*
8r	.	4b-/	8g\L	1	.
8d-^\L	2	.	8f\J	1	.
8c\	1	8cc/L	8en\L	1	.
8En\J	5	8b-/J	8g\J	2	.
=3	=3	=3	=3	=3	=3
4F\	1	8a-/L	8f\L	.	.
.	.	8cc/	8a-\	.	.
(8BB-/L	3	8b-/	8g\	.	.
8BBn/J)	2	8a-/J	8f\J	.	.
=4	=4	=4	=4	=4	=4
8C/L	.	8.g/L	4en\	.	.
8CC/J	.	.	.	.	.
.	.	16a-/Jk	.	.	.
8FF/L	1	8f/	8f\	.	.
8FFF|/J	.	8r	8ryy	.	.
*	*	*v	*v	*	*
!!LO:LB:g=original
=5	=5	=5	=5	=5
8r	.	(4b- 4g^/	.	.
8C\L	.	.	.	.
8c\	.	8a-L 8f/	.	.
*	*above	*	*	*
8d-\J	2	8gJ 8en/)	.	.
=6	=6	=6	=6	=6
*	*	*^	*^	*
8r	.	4.dd- 4.g 4.en^/	4.ryy	.	.	.
8BB-\L	.	.	.	.	.	.
8B-\	.	.	.	.	.	.
8En\J	.	16cc/LL	8g\	5	2	.
.	.	16b-/JJ	.	4	.	.
=7	=7	=7	=7	=7	=7	=7
*	*	*	*2\right	*	*	*
8F\L	1	(8a-/L	2f\	3	1	.
8E-\	.	8an/)	.	3	.	.
8Dn\	.	(8b-/	.	4	.	.
8D-X\J	.	8bn/J)	.	4	.	.
*	*	*	*	*v	*v	*
=8	=8	=8	=8	=8	=8
(8C\L	.	4cc/	4en\	.	.
16En\L	4	.	.	.	.
16G\JJ)	2	.	.	.	.
8c|\L	.	8r	4ryy	.	.
8d-J 8B-\	.	8ee-\	.	3.	.
*	*	*v	*v	*	*
=9	=9	=9	=9	=9
4c 4A-\	4 1	(16ddn\LL	2	.
.	.	16ee-\	.	.
.	.	16ff\	.	.
.	.	16ee-\JJ	.	.
4d- 4G 4E-\	.	16dd-X\LL	.	.
.	.	16cc\	.	.
.	.	16dd-\	4	.
.	.	16b-\JJ)	3	.
!!LO:LB:g=original
=10	=10	=10	=10	=10
8cL 8A-'\	4 2	8a-'/L	.	.
8c 8A-'\	.	8a- 8c'/	.	.
8cJ 8A-'\	.	8a-J 8c'/	.	.
8r	.	8e-/	2	.
=11	=11	=11	=11	=11
8e- 8c 8A-'\	.	8a-/L	4	.
8r	.	(16g/L	1	.
.	.	16a-/JJ	.	.
8e- 8c 8A-'\	.	16cc\LL	4	.
.	.	16a-\	.	.
8r	.	16ee-\	5	.
.	.	16cc\JJ	.	.
=12	=12	=12	=12	=12
*	*	*^	*	*
8E-\L	.	4b-/)	4g\	.	.
16.e-\L	.	.	.	.	.
32e-\JJk	.	.	.	.	.
8e-\L	.	8b-/L	8g\L	.	.
8d-\J	2	8bn/J	8f\J	.	.
=13	=13	=13	=13	=13	=13
!	!	!	!	!	!LO:DY:rj
8c\L	.	8.cc/L	4en\	.	f
8C\J	.	.	.	.	.
.	.	16dd-/Jk	.	5	.
8Dn\L	.	8cc/L	8f\L	4	.
8En\J	.	8b-/J	8g\J	.	.
=14	=14	=14	=14	=14	=14
!LO:TX:t=P:problem=mixed beam	!	!	!	!	!
8F\L	1	8.a-/L	8.f\L	.	.
8FF/J	.	.	.	.	.
.	.	16b-/Jk	16g\Jk	.	.
8r	.	8cc/L	8a-\L	.	.
8c 8A-^\	4 1	8f/J	8f\J	.	.
!!LO:LB:g=original
=15	=15	=15	=15	=15	=15
(4d- 4B-\	3 2	8g/L	4.f\	.	.
.	.	8b-/	.	.	.
8c\L)	1	8a-/	.	.	.
8B-J 8C\	.	8g/J	8en\	.	.
=16	=16	=16	=16	=16	=16
8A- 8F|\	.	4f/	4f\	.	.
.	.	.	.	.	p
16.FF/LL	.	.	.	.	.
32FF/JJk	.	.	.	.	.
8F\L	.	8r	4ryy	.	.
8BB-\J	.	(8b- (8d-/	.	1 5	.
*	*	*v	*v	*	*
=17	=17	=17	=17	=17
8F/L	.	4a- 4c/))	4	.
16.FF/L	.	.	.	.
32FF/JJk	.	.	.	.
8F\L	.	8r	.	.
8C\J	.	(8en (8B-/	.	.
=18	=18	=18	=18	=18
8F/L	.	4f 4A-/))	.	.
16.FF/L	.	.	.	.
!	!	!	!	!LO:HP:t=dimi
32FF/JJk	.	.	.	>
8F\L	.	8r	.	.
8BB-\J	.	(8b- (8d-/	.	.
=19	=19	=19	=19	=19
8F/L	.	4a- 4c/))	.	.
16.FF/L	.	.	.	.
32FF/JJk	.	.	.	.
8F\L	.	8r	.	.
8C\J	.	(8en (8B-/	.	.
=20	=20	=20	=20	=20
8F/L	.	4f 4A-/))	.	.
!	!	!	!	!LO:DY:t=pp.
16.FF/L	.	.	.	pp
32FF/JJk	.	.	.	.
8F/L	.	4r	.	.
16.FF/L	.	.	.	.
32FF/JJk	.	.	.	.
=21	=21	=21	=21	=21
(4F/	.	2r	.	.
8FF/)	.	.	.	.
8r	.	.	.	.
==	==	==	==	==
*-	*-	*-	*-	*-
!!!system-decoration: {p1}
!!!RDF**kern: > = above
!!!RDF**kern: < = below
!!!RDF**kern: | = vertical stroke
!!!ENC: Andrzej Kubiczek
!!!END: 2021-05-02
!!!ENC: Andrzej Gręziak
!!!END: 2021-04-17
!!!YEC: Copyright 2022 Narodowy Instytut Fryderyka Chopina (https://polishscores.org)
!!!YEM: License CC-BY-4.0 (https://creativecommons.org/licenses/by/4.0)
